openmetadata-ui/src/main/resources/ui/src/assets/svg/whatsNew.svg

<svg width="20" height="20" viewBox="0 0 20 20" fill="none" xmlns="http://www.w3.org/2000/svg">
<path d="M19.9765 1.49304C19.9332 0.698586 19.3013 0.0668309 18.5069 0.0234717C16.9039 -0.0641061 13.767 0.0210889 10.7675 1.57253C9.23837 2.36346 7.62119 3.70443 6.33061 5.25162C6.31471 5.27068 6.29924 5.28986 6.28346 5.30896L3.35457 5.53521C2.87246 5.57247 2.44305 5.82517 2.17641 6.22845L0.178212 9.25078C-0.0240136 9.55664 -0.0561619 9.93941 0.0921578 10.2747C0.240517 10.61 0.545359 10.8437 0.907663 10.8998L3.37527 11.282C3.36656 11.33 3.35781 11.3779 3.3498 11.4259C3.26765 11.9173 3.43047 12.4225 3.78539 12.7774L7.22256 16.2146C7.51682 16.5088 7.91443 16.6711 8.32185 16.6711C8.40576 16.6711 8.49013 16.6642 8.57412 16.6501C8.62209 16.6421 8.67002 16.6334 8.71798 16.6247L9.10017 19.0923C9.1563 19.4546 9.38997 19.7595 9.72521 19.9078C9.8647 19.9695 10.0123 20 10.1593 20C10.3656 20 10.5706 19.9399 10.7491 19.8218L13.7715 17.8236C14.1748 17.5569 14.4275 17.1275 14.4646 16.6454L14.6909 13.7165C14.71 13.7008 14.7292 13.6853 14.7483 13.6694C16.2955 12.3788 17.6365 10.7616 18.4274 9.2325C19.9789 6.23286 20.064 3.09596 19.9765 1.49304V1.49304ZM13.1252 16.846L10.2342 18.7574L9.86165 16.3526C11.0835 15.9933 12.2922 15.4179 13.4437 14.6471L13.2964 16.5551C13.2872 16.6741 13.2248 16.7802 13.1252 16.846V16.846ZM8.05119 15.386L4.61398 11.9487C4.52628 11.861 4.48574 11.7378 4.50562 11.6191C4.60781 11.008 4.76659 10.4263 4.96316 9.87836L10.1205 15.0357C9.46236 15.2714 8.87287 15.412 8.38088 15.4943C8.26197 15.5141 8.13889 15.4736 8.05119 15.386V15.386ZM3.44484 6.7036L5.3528 6.55622C4.58195 7.70774 4.00656 8.91645 3.6473 10.1383L1.24247 9.76586L3.15394 6.87477C3.2198 6.77517 3.32586 6.71278 3.44484 6.7036V6.7036ZM13.9977 12.7694C13.0511 13.559 12.1323 14.1301 11.2853 14.5433L5.4564 8.71442C5.99772 7.60879 6.65838 6.68813 7.23049 6.00228C8.42482 4.57045 9.91025 3.33526 11.3059 2.61338C14.0588 1.18944 16.9592 1.11276 18.4431 1.19355C18.6395 1.20425 18.7957 1.36046 18.8064 1.5569C18.8873 3.0408 18.8105 5.94118 17.3865 8.6941C16.6647 10.0897 15.4295 11.5751 13.9977 12.7694Z" fill="#37352F"/>
<path d="M13.7001 9.22799C14.4502 9.22791 15.2006 8.94236 15.7716 8.37131C16.325 7.81799 16.6297 7.08229 16.6297 6.29979C16.6297 5.5173 16.3249 4.7816 15.7716 4.22828C14.6294 3.08598 12.7708 3.08606 11.6286 4.22828C11.0752 4.7816 10.7705 5.5173 10.7705 6.29979C10.7705 7.08229 11.0753 7.81799 11.6286 8.37131C12.1998 8.94248 12.9498 9.22806 13.7001 9.22799ZM12.4571 5.05687C12.7998 4.71418 13.2499 4.54285 13.7 4.54285C14.1502 4.54285 14.6003 4.71418 14.943 5.05687C15.2749 5.38886 15.4578 5.83026 15.4578 6.29976C15.4578 6.76925 15.2749 7.21069 14.943 7.54268C14.2576 8.22803 13.1425 8.22799 12.4571 7.54268C12.1251 7.21069 11.9423 6.76928 11.9423 6.29979C11.9423 5.8303 12.1252 5.38886 12.4571 5.05687Z" fill="#37352F"/>
<path d="M0.597635 16.4819C0.747595 16.4819 0.897555 16.4247 1.01193 16.3102L2.92493 14.3972C3.15376 14.1684 3.15376 13.7974 2.92493 13.5686C2.69614 13.3398 2.32513 13.3398 2.0963 13.5686L0.183339 15.4816C-0.0454881 15.7104 -0.0454881 16.0814 0.183339 16.3102C0.297714 16.4246 0.447674 16.4819 0.597635 16.4819V16.4819Z" fill="#37352F"/>
<path d="M4.67813 15.322C4.44934 15.0932 4.07832 15.0932 3.8495 15.322L0.17162 18.9999C-0.0572068 19.2288 -0.0572068 19.5997 0.17162 19.8286C0.286034 19.943 0.435955 20.0002 0.585916 20.0002C0.735876 20.0002 0.885837 19.943 1.00021 19.8285L4.67809 16.1506C4.90695 15.9218 4.90695 15.5508 4.67813 15.322V15.322Z" fill="#37352F"/>
<path d="M5.6022 17.0749L3.6892 18.9879C3.46037 19.2168 3.46037 19.5877 3.6892 19.8166C3.80361 19.931 3.95357 19.9882 4.10349 19.9882C4.25341 19.9882 4.40341 19.931 4.51779 19.8166L6.43079 17.9036C6.65962 17.6747 6.65962 17.3038 6.43079 17.0749C6.202 16.8461 5.83099 16.8461 5.6022 17.0749Z" fill="#37352F"/>
</svg>

<svg xmlns="http://www.w3.org/2000/svg" width="20" height="20" fill="none"><path fill="#37352F" d="M19.977 1.493a1.555 1.555 0 0 0-1.47-1.47c-1.603-.087-4.74-.002-7.74 1.55-1.529.79-3.146 2.131-4.436 3.679l-.048.057-2.928.226c-.483.037-.912.29-1.179.693L.178 9.251a1.066 1.066 0 0 0-.086 1.024c.149.335.453.569.816.625l2.467.382-.025.144c-.082.491.08.996.435 1.351l3.438 3.438a1.558 1.558 0 0 0 1.351.435l.144-.025.382 2.467a1.067 1.067 0 0 0 1.06.908c.206 0 .41-.06.59-.178l3.021-1.998c.404-.267.656-.697.694-1.179l.226-2.928.057-.048c1.548-1.29 2.889-2.907 3.68-4.437 1.55-3 1.636-6.136 1.549-7.739Zm-6.852 15.353-2.89 1.911-.373-2.404c1.222-.36 2.43-.935 3.582-1.706l-.148 1.908a.382.382 0 0 1-.17.291Zm-5.074-1.46-3.437-3.437a.38.38 0 0 1-.108-.33c.102-.611.26-1.193.457-1.74l5.157 5.157a10.13 10.13 0 0 1-1.74.458.38.38 0 0 1-.329-.108ZM3.445 6.704l1.908-.148a13.126 13.126 0 0 0-1.706 3.582l-2.405-.372 1.912-2.891a.382.382 0 0 1 .29-.171Zm10.553 6.065a13.43 13.43 0 0 1-2.713 1.774L5.456 8.714A13.666 13.666 0 0 1 7.23 6.002c1.195-1.432 2.68-2.667 4.076-3.389 2.753-1.424 5.653-1.5 7.137-1.42.197.011.353.167.363.364.081 1.484.005 4.384-1.42 7.137-.721 1.396-1.956 2.881-3.388 4.075Z"/><path fill="#37352F" d="M13.7 9.228c.75 0 1.5-.286 2.072-.857A2.91 2.91 0 0 0 16.63 6.3a2.91 2.91 0 0 0-.858-2.072 2.933 2.933 0 0 0-4.143 0A2.91 2.91 0 0 0 10.77 6.3c0 .782.304 1.518.858 2.071a2.92 2.92 0 0 0 2.071.857Zm-1.243-4.171a1.752 1.752 0 0 1 1.243-.514A1.752 1.752 0 0 1 15.458 6.3a1.76 1.76 0 0 1-3.516 0c0-.47.183-.911.515-1.243ZM.598 16.482c.15 0 .3-.057.414-.172l1.913-1.913a.586.586 0 1 0-.829-.828L.183 15.482a.586.586 0 0 0 .415 1ZM4.678 15.322a.586.586 0 0 0-.829 0L.172 19a.586.586 0 0 0 .828.828l3.678-3.677a.586.586 0 0 0 0-.829ZM5.602 17.075 3.69 18.988a.586.586 0 0 0 .829.829l1.913-1.913a.586.586 0 0 0-.829-.83Z"/></svg>
